packages/core/src/svgs/wsi.svg

<svg width="24" height="24" viewBox="0 0 24 24" fill="none" xmlns="http://www.w3.org/2000/svg">
<g clip-path="url(#clip0_31_20822)">
<path d="M0 0H24V24H0V0Z" fill="#013662"/>
<path d="M10.7141 4.28564H9.42843V10.2856L10.7141 6.86564V4.28564ZM8.11272 7.28564H5.57129L8.48557 16.7142H10.6413L11.9827 12.3171L13.3584 16.7142H15.5141L18.4284 7.28564H15.9384L14.4213 11.9828L12.9556 7.28564H11.0441L9.527 11.9828L8.11272 7.28564ZM14.5713 4.28564H13.2856V6.86564L14.5713 10.2856V4.28564ZM9.42843 17.1428H10.7141V19.7142H9.42843V17.1428ZM14.5713 17.1428H13.2856V19.7142H14.5713V17.1428Z" fill="white"/>
</g>
<defs>
<clipPath id="clip0_31_20822">
<rect width="24" height="24" fill="white"/>
</clipPath>
</defs>
</svg>

<svg xmlns="http://www.w3.org/2000/svg" width="24" height="24" fill="none" viewBox="0 0 24 24"><g clip-path="url(#a)"><path fill="#013662" d="M0 0h24v24H0z"/><path fill="#fff" d="M10.714 4.286H9.428v6l1.286-3.42zm-2.601 3H5.57l2.915 9.428h2.155l1.342-4.397 1.375 4.397h2.156l2.914-9.428h-2.49l-1.517 4.697-1.465-4.697h-1.912l-1.517 4.697zm6.458-3h-1.285v2.58l1.285 3.42zM9.428 17.143h1.286v2.571H9.428zm5.143 0h-1.285v2.571h1.285z"/></g><defs><clipPath id="a"><path fill="#fff" d="M0 0h24v24H0z"/></clipPath></defs></svg>
